arkscan/icons/zoomex.svg

<svg width="200" height="200" viewBox="0 0 200 200" fill="none" xmlns="http://www.w3.org/2000/svg">
<path d="M56.111 101.111H19.2474C18.2723 101.111 17.7701 99.9447 18.4403 99.2364L83.535 30.4371C84.1525 29.7845 85.2489 30.0965 85.4303 30.9763L114.018 169.598C114.198 170.475 115.288 170.789 115.907 170.144L180.415 102.992C181.094 102.286 180.593 101.111 179.614 101.111H138.889" stroke="#63D6BE" stroke-width="26.6667" stroke-linecap="round"/>
</svg>

<svg width="200" height="200" fill="none" xmlns="http://www.w3.org/2000/svg"><path d="M56.111 101.111H19.247c-.975 0-1.477-1.166-.807-1.875l65.095-68.799a1.111 1.111 0 0 1 1.895.54l28.588 138.621a1.11 1.11 0 0 0 1.889.546l64.508-67.152c.679-.706.178-1.881-.801-1.881h-40.725" stroke="#63D6BE" stroke-width="26.667" stroke-linecap="round"/></svg>
